!!!OTL: Mach auf mein Schatz, mein goldne Pfort, hoer an mein Stimm, hoer an mein Wort!
!!!ARE: Europa, Mitteleuropa, Lothringen, Altripp
!!!SCT: D0002
!!!YEM: Copyright 1995, estate of Helmut Schaffrath.
**kern
*ICvox
*Ivox
*M4/4
*k[b-e-]
*g:
{8d
=1
8d
8g
8g
8f#
4.g
8a
=2
8b-
8a
4g
4.a}
{8g
=3
4fn
8a
8a
4g
8d
8e
=4
4fn
4e
4d
8r}
{8dd
=5
8dd
8cc
8dd
16dd
16cc
4.b-
8cc
=6
8dd
8ee-
8dd
16cc
16b-
4.a}
{8g
=7
8g
8fn
8g
8a
8b-
8cc
8dd
8cc
=8
4b-
4a
4g
8r}
==
!!!AGN: Tage - Lied, Kiltlied
!! Inzipit = Variante zum Lied
!!!ONB: ESAC (Essen Associative Code) Database: DVA
!!!AMT: simple quadruple
!!!AIN: vox
!!!EED: Helmut Schaffrath
!!!EEV: 1.0
*-
